packages/katcn/src/icons/svg/flash-solid.svg

<svg width="24" height="24" viewBox="0 0 24 24" fill="none" xmlns="http://www.w3.org/2000/svg">
<path fill-rule="evenodd" clip-rule="evenodd" d="M14.6525 2.81776C14.6525 1.99328 14.155 1.34074 13.475 1.09898C12.8099 0.862554 12.0043 1.04272 11.521 1.71456L8.88041 4.991L6.73184 7.59138L3.34108 11.8102C3.31464 11.8431 3.29032 11.8776 3.26825 11.9136C2.91604 12.4874 2.94168 13.1651 3.16623 13.6773C3.39716 14.2041 3.93231 14.7392 4.73551 14.7392H8.24521V21.1538C8.24521 21.9993 8.76193 22.6335 9.43913 22.8818C10.084 23.1182 10.8382 22.9996 11.4143 22.5303C11.4696 22.4852 11.52 22.4343 11.5645 22.3785L16.2753 16.4718L18.3212 13.9718L18.3349 13.9546L19.6673 12.2512C19.6906 12.2215 19.7122 12.1904 19.732 12.1582C20.0842 11.5843 20.0585 10.9066 19.834 10.3944C19.603 9.86766 19.0679 9.3325 18.2647 9.3325H14.6525V2.81776Z" fill="black"/>
</svg>

<svg xmlns="http://www.w3.org/2000/svg" fill="none" viewBox="0 0 24 24"><path fill="#000" fill-rule="evenodd" d="M14.653 2.818c0-.825-.498-1.477-1.178-1.719a1.69 1.69 0 0 0-1.954.616L8.881 4.99l-2.15 2.6-3.39 4.22a1 1 0 0 0-.073.103c-.352.573-.326 1.251-.102 1.763.231.527.766 1.062 1.57 1.062h3.51v6.415c0 .845.516 1.48 1.193 1.728a2.03 2.03 0 0 0 1.975-.352q.084-.068.15-.152l4.711-5.906 2.046-2.5.014-.017 1.332-1.704a1 1 0 0 0 .065-.093c.352-.574.326-1.251.102-1.764-.231-.526-.766-1.062-1.57-1.062h-3.611z" clip-rule="evenodd"/></svg>
